X:9
T: ALLEWEIL RAPPELTS AM SCHEUERTHOR
N: E1006
O: Europa, Mitteleuropa, Deutschland, Hessen, Odenwald, Spachbruecken
R: Tanz - Lied
M: 3/8
L: 1/16
K: G
 | G3GG2 | G2B2d2 | A2F2D2 |
G3GG2 | G2B2d2 | A6 |
B2B2B2 | d3cB2 | e3dd2 |
B2B2B2 | d2c2A2 | G6

@@@ Tune index: 4693
